!!!!SEGMENT: pl-kk--kk-i-2--012-003_anonim--missa-puer-natus-quattuor-paribus-credo.krn
!!!cenid: 16xx:1623
!!!COM: Anonim
!!!COM-rismID:
!!!CDT:
!!!CNT:
!!!OPR: Missa Puer natus quattuor paribus
!!!OTL: Credo
!!!OMV: 003
!!!PDT:
!!!AGN: Sacred; Mass
!!!SMS-siglum: PL-Kk
!!!SMS-shelfmark: Kk.I.2
!!!SMS-shelfwork: 012-003 M
!!!SMS-variant:
!!!SMS-altvar:
!!!NIFC-rismSourceID: 300258028
!!!NIFC-islandoraID: pl-kk:750
!!!URL-pdf-islandora: https://repozytorium.nifc.pl/islandora/object/pl-kk%3A750/datastream/PDF/view
!!!URL-scan: https://polish.musicsources.pl/pl/lokalizacje/galeria/rekopisy/5828 @EN{Scan on Polish Music Herritage in Open Access Website} @PL{Skany w portalu Dziedzictwo Muzyki Polskiej w otwartym dostępie}
!!!ONB-nifc: Części mszy: Kyrie, Gloria, Credo, Sanctus, Agnus Dei; skany: C: 0034-0036; A: 0134-0136; T: 0237-0239; B: 0336-0337;
!!!AIN: 1 alto 1 bass 1 soprn 1 tenor
!!!key: F:hypodor
**kern	**text	**kern	**text	**kern	**text	**kern	**text
*part4	*part4	*part3	*part3	*part2	*part2	*part1	*part1
*staff4	*staff4	*staff3	*staff3	*staff2	*staff2	*staff1	*staff1
*I"BASVS	*	*I"TENOR	*	*I"ALTVS	*	*I"DISCANTVS	*
*I'B	*	*I'T	*	*I'A	*	*I'C	*
*Ibass	*	*Itenor	*	*Ialto	*	*Isoprn	*
*ICvox	*	*ICvox	*	*ICvox	*	*ICvox	*
*clefF4	*	*clefC4	*	*clefC4	*	*clefC3	*
*k[b-]	*	*k[b-]	*	*k[b-]	*	*k[b-]	*
*F:	*	*F:	*	*F:	*	*F:	*
*M2/1	*	*M2/1	*	*M2/1	*	*M2/1	*
*met(C|)	*	*met(C|)	*	*met(C|)	*	*met(C|)	*
=1-	=1-	=1-	=1-	=1-	=1-	=1-	=1-
1F	PA-	1F	PA-	2.A/	Pa-	1c	PA-
.	.	.	.	4B-\	.	.	.
1F	-trem	1F	-trem	4c\	.	1c	-trem
.	.	.	.	4B-\	.	.	.
.	.	.	.	4A/	.	.	.
.	.	.	.	4G/	.	.	.
=2-	=2-	=2-	=2-	=2-	=2-	=2-	=2-
1D	o-	1A	o-	4F/	.	1f	o-
.	.	.	.	4G/	.	.	.
.	.	.	.	2A/	.	.	.
2D/	-mni-	2B-\	-mni-	1F	trem	2d\	-mni-
2D/	-po-	2B-\	-po-	.	.	2d\	-po-
=3-	=3-	=3-	=3-	=3-	=3-	=3-	=3-
0C	-ten-	0c	-ten-	2r	.	0g	-ten-
.	.	.	.	2C/	o-	.	.
.	.	.	.	4E/	-mni-	.	.
.	.	.	.	4E/	-po-	.	.
.	.	.	.	2E/	-ten-	.	.
=4-	=4-	=4-	=4-	=4-	=4-	=4-	=4-
1.C	-tem	0c	-tem	1.G	-tem	1e	-tem
.	.	.	.	.	.	2r	.
1F\	fa-	.	.	1A\	fa-	1f\	fa-
=5-	=5-	=5-	=5-	=5-	=5-	=5-	=5-
.	.	2c\	fa-	.	.	.	.
4F\	-cto-	4c\	-cto-	4A/	-cto-	4f\	-cto-
4F\	-rem	4c\	-rem	4A/	-rem	4f\	-rem
1F	cae-	1c	cae-	1A	cae-	1.f	cae-
=6-	=6-	=6-	=6-	=6-	=6-	=6-	=6-
*	*	*	*	*custos:c	*	*	*
1G	-li	1B-	-li	1G	-li	.	.
.	.	.	.	.	.	1e	-li
!	!	!	!	!LO:PB:g=original	!	!	!
1A	et	1c	et	2c\	et	.	.
.	.	.	.	1c\	ter-	2f\	et
=7-	=7-	=7-	=7-	=7-	=7-	=7-	=7-
0G	ter-	0d	ter-	.	.	0g	ter-
!	!	!	!	!LO:N:acc=#	!	!	!
.	.	.	.	4Bn\	.	.	.
.	.	.	.	4A\	.	.	.
!	!	!	!	!LO:N:acc=#	!	!	!
.	.	.	.	1Bn	.	.	.
=8-	=8-	=8-	=8-	=8-	=8-	=8-	=8-
1C,	-rae	1c	-rae	1c	-rae	1e	-rae
2.D/	Vi-	2.A\	Vi-	2.d\	ui-	2.f\	Vi-
4D/	-ſi-	4A\	-si-	4d\	-ſi-	4f\	-si-
=9-	=9-	=9-	=9-	=9-	=9-	=9-	=9-
2D/	-bi-	2A\	-bi-	2d\	-bi-	2f\	-bi-
2D/	-li-	2A\	-li-	2d\	-li-	2f\	-li-
*	*	*	*	*	*	*custos:g	*
1C	-um	1c	-um	1e	-um	1g	-um
=10-	=10-	=10-	=10-	=10-	=10-	=10-	=10-
!	!	!	!	!	!	!LO:LB:g=original	!
2.C/	o-	2c\	o-	2.e\	o-	2.g\	o-
.	.	2c\	-mni-	.	.	.	.
4C/	-mni-	.	.	4e\	-mni-	4g\	-mni-
1.D	-um	1.F	-um	1.d	-um	1f	-um
=11-	=11-	=11-	=11-	=11-	=11-	=11-	=11-
.	.	.	.	.	.	1.a	et
2D/	et	2F/	et	2d\	et	.	.
1BB-	in-	1B-	in-	1d	in-	.	.
.	.	.	.	.	.	2g\	in-
=12-	=12-	=12-	=12-	=12-	=12-	=12-	=12-
2FF/	-ui-	2A/	-vi-	2c\	-ui-	2f\	-Vi-
*custos:C	*	*custos:G	*	*	*	*	*
2AA/	-ſi-	2A/	-si-	2c\	-ſi-	2f\	-si-
!LO:LB:g=original	!	!LO:PB:g=original	!	!	!	!	!
1.C	-bi-	1.G	-bi-	1.c	-bi-	2f\	-bi-
.	.	.	.	.	.	4e\	.
.	.	.	.	.	.	4d\	.
=13-	=13-	=13-	=13-	=13-	=13-	=13-	=13-
.	.	.	.	.	.	2e\	.
*	*	*	*	*custos:A	*	*	*
2C/	-li-	2G/	-li-	2c\	-li-	2e\	-li-
!LO:TX:t=P:problem=kreska pseudotaktowa	!	!LO:N:vis=0	!	!LO:N:vis=0	!	!LO:N:vis=0	!
!	!	!	!	!LO:LB:g=original	!	!	!
1FF	-um.	1F	-um	1A	-um	1f	-um
=14-	=14-	=14-	=14-	=14-	=14-	=14-	=14-
*M3/1	*	*M3/1	*	*M3/1	*	*M3/1	*
0F	Et	0A	Et	0c	Et	0f	Et
1C	in	1G	in	1c	in	1e	in
=15-	=15-	=15-	=15-	=15-	=15-	=15-	=15-
0FF	V-	0A	u-	0c	v-	0f	v-
1FF,	-num	1A	-num	1c	-num	1f	-num
=16-	=16-	=16-	=16-	=16-	=16-	=16-	=16-
0F	Et	0F	et	0A	Et	0c	Et
1BB-	in	1F	in	1B-y	in	1d	in
=17-	=17-	=17-	=17-	=17-	=17-	=17-	=17-
0FF	v-	0A	u-	0c	v-	0f	v-
1BB-,	-num	1B-	-num	1d	-num	1f	-num
=18-	=18-	=18-	=18-	=18-	=18-	=18-	=18-
0F	Do-	0A	do-	0c	Do-	0f	Do-
1G	-mi-	1G	-mi-	1B-	-mi-	1d	-mi-
=19-	=19-	=19-	=19-	=19-	=19-	=19-	=19-
*	*	*	*	*	*	*custos:e	*
!	!	!LO:N:vis=0	!	!LO:N:vis=0	!	!	!
0.D,	-num	0.F	-num	0.A	-num	0.d	-num
=20-	=20-	=20-	=20-	=20-	=20-	=20-	=20-
!	!	!	!	!	!	!LO:PB:g=original	!
0C	D(o-	0G	Do-	0c	Do-	0e	Do-
1C	-mi)-	1G	-mi-	1c	-mi-	1e	-mi-
=21-	=21-	=21-	=21-	=21-	=21-	=21-	=21-
0D	-num	0F	-num	0A	-num	0d	-num
1BB-	Je-	1F	je-	1B-	Je-	1d	Je-
=22-	=22-	=22-	=22-	=22-	=22-	=22-	=22-
*col	*	*	*	*col	*	*col	*
1F	-ſum	1F	-sum	1A	-ſum	1c	-ſum
*	*	*lig	*	*	*	*	*
0C	chr(i-	1F	Chri-	0G	chri-	0c	chr(i-
.	.	1E	.	.	.	.	.
*Xcol	*	*Xlig	*	*Xcol	*	*Xcol	*
=23-	=23-	=23-	=23-	=23-	=23-	=23-	=23-
*	*	*	*	*custos:c	*	*	*
!LO:N:vis=0	!	!	!	!LO:N:vis=0	!	!	!
0.F,	-st)um	0.F	-ſtum	0.A	-ſtum	0.c,	-st)um
=24-	=24-	=24-	=24-	=24-	=24-	=24-	=24-
*	*	*	*	*	*	*	*ij
!	!	!	!	!LO:LB:g=original	!	!	!
0C	D(o-	1%3r	.	0c	Do-	0e	Do-
1C	-mi)-	.	.	1c	-mi-	1e	-mi-
=25-	=25-	=25-	=25-	=25-	=25-	=25-	=25-
0D	-num	1.D	Do-	0A	-num	0f	-num
.	.	2D/	-mi-	.	.	.	.
1BB-	Je-	1F	-num	1B-	Je-	1f	Je-
=26-	=26-	=26-	=26-	=26-	=26-	=26-	=26-
1F	-ſum	2F/	je-	1A	-ſum	1f	-ſum
*	*	*custos:C	*	*	*	*	*
.	.	2C/	-sum	.	.	.	.
*custos:FF	*	*	*	*	*	*	*
*	*	*lig	*	*	*	*lig	*
!	!	!LO:LB:g=original	!	!	!	!	!
0C	Chri-	1C	Chri-	0G	chri-	1e	chr(i-
.	.	1c	.	.	.	1d	.
*	*	*Xlig	*	*	*	*Xlig	*
=27-	=27-	=27-	=27-	=27-	=27-	=27-	=27-
*M2/1	*	*M2/1	*	*M2/1	*	*M2/1	*
*met(C|)	*	*met(C|)	*	*met(C|)	*	*met(C|)	*
!LO:LB:g=original	!	!	!	!	!	!	!
1FF,	-ſtum	4c\	-ſtum	1A	-ſtum	1f	-st)um
*	*	*	*	*	*	*	*Xij
.	.	4c\	fi-	.	.	.	.
.	.	4c\	-li-	.	.	.	.
.	.	4c\	-um	.	.	.	.
*2\right	*	*	*	*	*	*	*
2F\	fi-	4A\	de-	2A/	fi-	1r	.
.	.	4c\	-i	.	.	.	.
4F\	-li-	4d\	u-	4A/	-li-	.	.
4F\	-um	4e\	-ni-	4A/	-um	.	.
=28-	=28-	=28-	=28-	=28-	=28-	=28-	=28-
*	*	*	*	*	*	*2\right	*
4D\	De-	2f\	-ge-	4F/	De-	2f\	Fi-
4F\	-i	.	.	4A/	-i	.	.
4G\	V-	2d\	-ni-	4B-\	V-	4f\	-li-
4A\	-ni-	.	.	4c\	-ni-	4f\	-um
2B-\	-ge-	1d,	-tum	2d\	-ge-	4d\	De-
.	.	.	.	.	.	4f\	-i
2BB-/	-ni-	.	.	2d\	-ni-	4g\	V-
.	.	.	.	.	.	4f\	-ni-
=29-	=29-	=29-	=29-	=29-	=29-	=29-	=29-
1C,	-tum	4e\	Et	1c	-tum	2.e\	-ge-
.	.	4d\	.	.	.	.	.
.	.	4c\	.	.	.	.	.
.	.	4B-\	.	.	.	4e\	-ni-
2.C/	Et	2c\	.	2r	.	4e\	-tum
.	.	.	.	.	.	2e\	Et
.	.	2G/	ex	2.c\	Et	.	.
4C/	ex	.	.	.	.	4e\	ex
=30-	=30-	=30-	=30-	=30-	=30-	=30-	=30-
1C	P(a-	1G	pa-	.	.	1.e	Pa-
.	.	.	.	4c\	ex	.	.
.	.	.	.	2c\	pa-	.	.
*	*	*	*	*custos:f	*	*	*
1C	-t)re	1G	-tre	1c	-tre	.	.
.	.	.	.	.	.	2g\	-tre
=31-	=31-	=31-	=31-	=31-	=31-	=31-	=31-
*	*	*	*	*	*	*custos:a	*
!	!	!	!	!LO:LB:g=original	!	!	!
1AA	na-	1C	na-	1f	na-	1a	na-
!	!	!	!	!	!	!LO:LB:g=original	!
1FF	-tum	1C	-tum	1f	-tum	1a,	-tum
=32-	=32-	=32-	=32-	=32-	=32-	=32-	=32-
2.F\	an-	2.c\	an-	2f\	an-	2.a\	an-
.	.	.	.	2f\	-te	.	.
4F\	-te	4c\	-te	.	.	4a\	-te
2G\	o-	2B-\	o-	2.e\	o-	2g\	o-
2G\	-mni-	2B-\	-mni-	.	.	2g\	-mni-
.	.	.	.	4e\	-mni-	.	.
=33-	=33-	=33-	=33-	=33-	=33-	=33-	=33-
*	*	*custos:d	*	*	*	*	*
1A	-a	1c,	-a	2f\	-a	1e	-a
.	.	.	.	1c	Se-	.	.
!	!	!LO:LB:g=original	!	!	!	!	!
1.G	Se-	1.d	se-	.	.	1.g	Se-
!	!	!	!	!LO:N:acc=#	!	!	!
.	.	.	.	4Bn\	.	.	.
.	.	.	.	4A/	.	.	.
=34-	=34-	=34-	=34-	=34-	=34-	=34-	=34-
!	!	!	!	!LO:N:acc=#	!	!	!
.	.	.	.	2Bn\	.	.	.
2G\	-cu-	2d\	-cu-	2B\	-cu-	2g\	-cu-
4C,/	-la	4c,\	-la	4c,\	-la	4e,\	-la
4C/	De-	4c\	de-	4e\	De-	4g\	De-
4C/	-um	4c\	-um	4e\	-um	4g\	-um
4C/	de	4c\	de	4e\	de	4g\	de
=35-	=35-	=35-	=35-	=35-	=35-	=35-	=35-
2D/	De-	2A/	de-	2d\	De-	2f\	De-
4D,/	-o	4A/	-o	4d\	-o	4f,\	-o
4D/	lu-	4A/	lu-	4d\	lu-	4f\	lu-
4D/	-men	4F/	-men	4d\	-men	4a\	-men
*custos:C	*	*	*	*custos:e	*	*	*
4D/	de	4A/	de	4d\	de	4f\	de
!LO:LB:g=original	!	!	!	!LO:LB:g=original	!	!	!
4.C/	lu-	4.c\	lu-	4.e\	lu-	4.g\	lu-
8C/	-mi-	8c\	-mi-	8e\	-mi-	8g\	-mi-
=36-	=36-	=36-	=36-	=36-	=36-	=36-	=36-
2C,/	-ne	2c\	-ne	2e\	-ne	2g,\	-ne
1C	De-	1c	De-	1e	De-	1g	De-
2C/	-um	2c\	-um	2e\	-um	2g\	-um
=37-	=37-	=37-	=37-	=37-	=37-	=37-	=37-
1D	Ve-	1A	ve-	1d	ve-	1f	Ve-
1D	-rum	2F/	-rum	1d	-rum	1.a	-rum
.	.	2r	.	.	.	.	.
=38-	=38-	=38-	=38-	=38-	=38-	=38-	=38-
1BB-	De	1B-	De	1d	de	.	.
.	.	.	.	.	.	2f\	De
2F\	De-	2A\	de-	2c\	De-	2f\	De-
2F\	-o	2A\	-o	2c\	-o	1f\	-o
=39-	=39-	=39-	=39-	=39-	=39-	=39-	=39-
0C	Ve-	0G	ve-	0c	Ve-	.	.
.	.	.	.	.	.	4e\	Ve-
.	.	.	.	.	.	4d\	.
.	.	.	.	.	.	1e	.
=40-	=40-	=40-	=40-	=40-	=40-	=40-	=40-
*	*	*	*	*	*	*custos:f	*
!LO:TX:t=P:problem=kreska pseudotaktowa	!	!	!	!	!	!	!
1FF	-ro.	1A	-ro	1c	-ro	1f	-ro
=41-	=41-	=41-	=41-	=41-	=41-	=41-	=41-
*M3/1	*	*M3/1	*	*M3/1	*	*M3/1	*
!	!	!	!	!LO:TX:t=P:problem=oznaczenie menzuralne O| 3/1	!	!	!
!	!	!	!	!	!	!LO:LB:g=original	!
0F	Ge-	0F	Ge-	0c	Ge-	0a	Ge-
1C	-ni-	1G	-ni-	1c	-ni-	1g	-ni-
=42-	=42-	=42-	=42-	=42-	=42-	=42-	=42-
0F	-tum	0A	-tum	0c	-tum	0f	-tum
*	*	*custos:A	*	*	*	*	*
1F	non	1A	non	1c	non	1f	non
=43-	=43-	=43-	=43-	=43-	=43-	=43-	=43-
!	!	!LO:LB:g=original	!	!	!	!	!
0F	fa-	0A	[fa-	0c	fa-	0f	fa-
*	*	*	*	*custos:f	*	*	*
1BB-,	-ctum	1B-	-ctum]	1d	-ctum	1g,	-ctum
=44-	=44-	=44-	=44-	=44-	=44-	=44-	=44-
*	*ij	*	*ij	*	*	*	*ij
!	!	!	!	!LO:PB:g=original	!	!	!
0F	Ge-	0c	Ge-	0f	Ge-	0a	Ge-
1BB-	-ni-	1d	-ni-	1f	-ni-	1f	-ni-
=45-	=45-	=45-	=45-	=45-	=45-	=45-	=45-
0F	-tum	0c	-tum	0f	-tum	0a	-tum
1G	non	1B-	non	1d	non	1g	non
=46-	=46-	=46-	=46-	=46-	=46-	=46-	=46-
0D	fa-	0A	fa-	0d	fa-	1a	fa-
.	.	.	.	.	.	1f	-ctum
*	*	*	*	*	*	*	*Xij
1D,	-ctum	1A,	-ctum	1d	-ctum	1r	.
*	*Xij	*	*Xij	*	*	*	*
=47-	=47-	=47-	=47-	=47-	=47-	=47-	=47-
0C	Con-	0c	Con-	0e	con-	0g	Con-
*custos:D	*	*	*	*	*	*	*
1C	-ſub-	1c	-ſub-	1e	-ſub-	1g	-ſub-
=48-	=48-	=48-	=48-	=48-	=48-	=48-	=48-
!LO:LB:g=original	!	!	!	!	!	!	!
1D	-ſtan-	1A	-ſtan-	1d	-ſtan-	1f	-ſtan-
1D	-ti-	1A	-ti-	1d	-ti-	1f	-ti-
1BB-	-a-	1B-	-a-	1d	-a-	1f	-a-
=49-	=49-	=49-	=49-	=49-	=49-	=49-	=49-
*col	*	*col	*	*col	*	*	*
1F	-lem	1A	-lem	1c	-lem	1f	-lem
*	*	*	*	*	*	*lig	*
0C	Pa-	0G	pa-	0c	pa-	1f	Pa-
.	.	.	.	.	.	1e	.
*Xcol	*	*Xcol	*	*Xcol	*	*Xlig	*
=50-	=50-	=50-	=50-	=50-	=50-	=50-	=50-
!	!	!LO:N:vis=0	!	!LO:N:vis=0	!	!	!
0.F,	-tri	0.A,	-tri	0.c	-tri	0.f	-tri
=51-	=51-	=51-	=51-	=51-	=51-	=51-	=51-
*	*ij	*	*	*	*ij	*	*ij
0C	Con-	0G	Con-	0c	con-	0e	Con-
1C	-ſub-	1G	-ſub-	1c	-ſub-	1e	-ſub-
=52-	=52-	=52-	=52-	=52-	=52-	=52-	=52-
*	*	*	*ij	*	*	*	*
1D	-ſtan-	1F	-ſtan-	1A	-ſtan-	1d	-ſtan-
1D	-ti-	1F	-ti-	1A	-ti-	1d	-ti-
*	*	*	*	*	*	*custos:c	*
1BB-	-a-	1F	-a-	1B-y	-a-	1d	-a-
=53-	=53-	=53-	=53-	=53-	=53-	=53-	=53-
*col	*	*	*	*col	*	*col	*
!	!	!	!	!	!	!LO:LB:g=original	!
1F	-lem	1F	-lem	1A	-lem	1c	-lem
*	*Xij	*lig	*	*	*	*	*
*	*	*	*	*custos:A	*	*	*
0C	Pa-	1F	pa-	0G	pa-	0c	Pa-
.	.	1E	.	.	.	.	.
*Xcol	*	*Xlig	*	*Xcol	*	*Xcol	*
=54-	=54-	=54-	=54-	=54-	=54-	=54-	=54-
*M2/1	*	*M2/1	*	*M2/1	*	*M2/1	*
*met(C|)	*	*met(C|)	*	*met(C|)	*	*met(C|)	*
!	!	!	!	!LO:LB:g=original	!	!	!
2FF,/	-tri	2F,/	-tri	2A,/	-tri	2c,/	-tri
*	*	*	*Xij	*	*Xij	*	*Xij
1C	Per	1E	per	1G	per	1c	per
2C/	quem	2E/	quem	2G/	quem	2c/	quem
=55-	=55-	=55-	=55-	=55-	=55-	=55-	=55-
2.C/	o-	2.E/	o-	2.G/	o-	2.c/	o-
*	*	*custos:E	*	*	*	*	*
4C/	-mni-	4E/	-mni-	4G/	-mni-	4c/	-mni-
!	!	!LO:LB:g=original	!	!	!	!	!
1C	-a	1E	-a	1G	-a	1c	-a
=56-	=56-	=56-	=56-	=56-	=56-	=56-	=56-
0F	fa-	2.A/	fa-	2.F/	fa-	2.c/	fa-
.	.	4G/	.	4G/	.	4B-/	.
.	.	4F/	.	4A/	.	4A/	.
.	.	4G/	.	4B-\	.	4G/	.
.	.	4A/	.	4c\	.	4F/	.
.	.	4B-\	.	4B-\	.	4G/	.
=57-	=57-	=57-	=57-	=57-	=57-	=57-	=57-
0FF	-cta	4c\	.	4A/	.	4A/	.
.	.	4B-\	.	4G/	.	4B-/	.
.	.	4A\	.	1F	.	1c	.
.	.	4G\	.	.	.	.	.
.	.	2F/	.	.	.	.	.
.	.	2F/	-cta	2c\	-cta	2f\	cta
=58-	=58-	=58-	=58-	=58-	=58-	=58-	=58-
1C,	Sunt,	1G,	Sunt	1c	ſunt	1e,	Sunt
!	!	!LO:N:acc=#	!	!	!	!	!
2G\	Qui	2Bn\	qui	2d\	qui	2g\	Qui
2G,\	p(ro)-	2B\	pro-	2d\	pro-	2g\	pro-
=59-	=59-	=59-	=59-	=59-	=59-	=59-	=59-
4G\	-pter	4Bny\	-pter	4d\	-p(ter)	4g\	-pter
4E\	[nos]	4c\	nos	4e\	nos	4g\	nos
4.F\	ho-	4.A\	ho-	4.c\	ho-	4.f\	h(o-
*custos:C	*	*	*	*	*	*	*
8F\	-mi-	8A\	-mi-	8c\	-mi-	8f\	-mi)-
*	*	*	*	*custos:c	*	*	*
!LO:PB:g=original	!	!	!	!	!	!	!
1C	-nes	4G/	-nes	1c	-nes	1e	-nes
.	.	4G/	et	.	.	.	.
.	.	4A\	pro-	.	.	.	.
.	.	4B\	-pter	.	.	.	.
=60-	=60-	=60-	=60-	=60-	=60-	=60-	=60-
!	!	!	!	!LO:LB:g=original	!	!	!
4r	.	2c\	no-	1r	.	4r	.
4C/	et	.	.	.	.	4e\	et
4D\	p(ro)-	2B-y\	-ſtram	.	.	4f\	p(ro)-
4E\	-pter	.	.	.	.	4g\	-pter
*	*	*	*	*	*	*custos:a	*
2F\	n(o-	1A	Sa-	4r	.	1a	no-
.	.	.	.	4c\	Et	.	.
1D\	-st)ram	.	.	4d\	pro-	.	.
.	.	.	.	4e\	-pter	.	.
=61-	=61-	=61-	=61-	=61-	=61-	=61-	=61-
!	!	!	!	!	!	!LO:LB:g=original	!
.	.	2.d\	-lu-	2f\	no-	4a\	-ſtram
.	.	.	.	.	.	2f\	Sa-
2AA/	Sa-	.	.	4c\	-ſtram	.	.
.	.	4c\	.	4c\	Sa-	4e\	.
1BB-	-lu-	4B-\	.	1d	-lu-	1d	-lu-
.	.	4A\	.	.	.	.	.
.	.	1B-\	.	.	.	.	.
=62-	=62-	=62-	=62-	=62-	=62-	=62-	=62-
2FF,/	-tem	.	.	1c	-tem	2f\	-tem
!	!	!	!	!	!	!LO:N:vis=1	!
2C/	de-	2A,/	-tem	.	.	2e\	de-
1AA	-ſcen-	2A/	de-	2r	.	2.c\	-ſcen-
.	.	4G/	.	1c\	de-	.	.
.	.	4F/	.	.	.	4d\	.
=63-	=63-	=63-	=63-	=63-	=63-	=63-	=63-
1C	-dit	2G/	.	.	.	4e\	.
.	.	.	.	.	.	4f\	.
.	.	2C/	-scen-	2G/	-ſcen-	2g\	.
*	*	*custos:C	*	*	*	*	*
1AA	de	1F	-dit	1A	-dit	1f	-dit
=64-	=64-	=64-	=64-	=64-	=64-	=64-	=64-
!	!	!LO:PB:g=original	!	!	!	!	!
1C	Cae-	2r	.	2G/	de	1c	de
.	.	2C/	de-	2.c\	cae-	.	.
2.FF/	.	4F/	-scen-	.	.	2.c/	Cae-
.	.	4G/	.	4B-\	.	.	.
.	.	4A\	.	2.A/	.	.	.
4GG/	.	4B-\	.	.	.	4B-/	.
=65-	=65-	=65-	=65-	=65-	=65-	=65-	=65-
*	*	*	*	*	*	*lig	*
2AA/	.	2c\	.	.	.	1A	.
.	.	.	.	4B-\	.	.	.
2AA/	.	4c\	-dit	2c\	.	.	.
.	.	4F/	de	.	.	.	.
*	*	*	*	*	*	*col	*
0BB-	.	0F	cae-	4d\	.	2.d\	.
.	.	.	.	4c\	.	.	.
.	.	.	.	4B-\	.	.	.
*	*	*	*	*	*	*Xlig	*
.	.	.	.	4A/	.	4e\	.
*	*	*	*	*	*	*Xcol	*
=66-	=66-	=66-	=66-	=66-	=66-	=66-	=66-
.	.	.	.	1B-	.	1f	.
1FFl;	-lis.	1Fl;	-lis	1cl;	-lis	1fl;	-lis.
=67||-	=67||-	=67||-	=67||-	=67||-	=67||-	=67||-	=67||-
*M3/1	*	*M3/1	*	*M3/1	*	*M3/1	*
!LO:TX:t=P:problem=oznaczenie menzuralne C| 3/1	!	!	!	!LO:TX:t=P:problem=oznaczenie menzuralne O| 3/1	!	!LO:TX:t=P:problem=oznaczenie menzuralne C| 3/1	!
1F	ET	1F	Et	1c	Et	1f	ET
1F	in-	1F	in-	1c	in-	1f	in-
*custos:F	*	*	*	*	*	*	*
1C	-car-	1G	-car-	1c	-car-	1e	-car-
=68-	=68-	=68-	=68-	=68-	=68-	=68-	=68-
!LO:LB:g=original	!	!	!	!	!	!	!
0F	-na-	0A	-na-	0c	-na-	0f	-na-
*	*	*	*	*	*	*custos:f	*
1F,	-tus	1A,	-tus	1c	-tus	1f,	-tus
=69-	=69-	=69-	=69-	=69-	=69-	=69-	=69-
!	!	!	!	!	!	!LO:PB:g=original	!
1F	Et	1A	et	1c	Et	1f	Et
1F	in-	1A	in-	1c	in-	1f	in-
1BB-	-car-	1B-	-car-	1d	-car-	1g	-car-
=70-	=70-	=70-	=70-	=70-	=70-	=70-	=70-
0F	-na-	0c	-na-	0f	-na-	0a	-na-
1B-	-tus	1d	-tus	1f	-tus	1f,	-tus
=71-	=71-	=71-	=71-	=71-	=71-	=71-	=71-
0F	eſt	0c	eſt	0f	eſt	0a,	eſt
1G	De	1B-	de	1d	de	1g	de
=72-	=72-	=72-	=72-	=72-	=72-	=72-	=72-
1.D	Spi-	1.A	Spi-	1.d	Spi-	1.a	Spi-
2D/	-ri-	2A/	-ri-	2d\	-ri-	2a\	-ri-
1D	-tu	1A	-tu	1d	-tu	1f,	-tu
=73-	=73-	=73-	=73-	=73-	=73-	=73-	=73-
0C	San-	0c	San-	0e	San-	0g	San-
1C,	-cto	1c	-cto	1e	-cto	1g,	-cto
=74-	=74-	=74-	=74-	=74-	=74-	=74-	=74-
1D	Ex	1A	ex	1d	Ex	1f	Et
1D	Ma-	1A	ma-	1d	Ma-	1f	Ma-
*	*	*custos:A	*	*custos:c	*	*	*
1BB-	-ri-	1B-	-ri-	1d	-ri-	1f	-ri-
=75-	=75-	=75-	=75-	=75-	=75-	=75-	=75-
!	!	!LO:LB:g=original	!	!LO:LB:g=original	!	!	!
1F	-a	1A	-a	1c	-a	1f	-a
1.C	Vir-	1.G	vir-	1.c	Vir-	1f	Vir-
.	.	.	.	.	.	1e	-gi-
2C/	-gi-	2G/	-gi-	2c\	-gi-	.	.
=76-	=76-	=76-	=76-	=76-	=76-	=76-	=76-
!LO:N:vis=0	!	!LO:N:vis=0	!	!LO:N:vis=0	!	!	!
0.F,	-ne	0.A	-ne	0.c	-ne	0.f,	-ne
=77-	=77-	=77-	=77-	=77-	=77-	=77-	=77-
!LO:N:vis=0	!	!LO:N:vis=0	!	!LO:N:vis=0	!	!	!
0.C	Et	0.c	et	0.e	Et	0.g,	Et
=78-	=78-	=78-	=78-	=78-	=78-	=78-	=78-
0D	ho-	0A	ho-	0d	ho-	0f	ho-
1BB-	-mo	1B-	-mo	1d	-mo	1f	-mo
=79-	=79-	=79-	=79-	=79-	=79-	=79-	=79-
*col	*	*col	*	*col	*	*	*
1F	fa-	1A	fa-	1c	fa-	0f	fa-
0C	-ctus	0G	-ctus	0c	-ctus	.	.
.	.	.	.	.	.	1e	-ctus
*Xcol	*	*Xcol	*	*Xcol	*	*	*
=80-	=80-	=80-	=80-	=80-	=80-	=80-	=80-
*custos:C	*	*	*	*	*	*	*
!	!	!LO:N:vis=0	!	!LO:N:vis=0	!	!	!
0.F	eſt.	0.A	eſt	0.c	eſt	0.f	eſt,
=81-	=81-	=81-	=81-	=81-	=81-	=81-	=81-
*	*	*	*	*	*ij	*	*
*	*	*	*	*	*	*custos:f	*
!LO:LB:g=original	!	!LO:N:vis=0	!	!LO:N:vis=0	!	!	!
!LO:N:vis=0	!	!	!	!	!	!	!
0.C	Et	0.c	et	0.e	Et	0.g	Et
=82-	=82-	=82-	=82-	=82-	=82-	=82-	=82-
0D	ho-	0A	ho-	0d	ho-	0f	ho-
1BB-	-mo	1B-	-mo	1d	-mo	1f	-mo
=83-	=83-	=83-	=83-	=83-	=83-	=83-	=83-
*col	*	*col	*	*col	*	*	*
1F	fa-	1A	fa-	1c	fa-	0f	fa-
0C	-ctus	0G	-ctus	0c	-ctus	.	.
.	.	.	.	.	.	1e	-ctus
*Xcol	*	*Xcol	*	*Xcol	*	*	*
=84-	=84-	=84-	=84-	=84-	=84-	=84-	=84-
0.FF	eſt.	0.A;	eſt	0.c;	eſt	0.f;	eſt.
*	*	*	*	*	*Xij	*	*
=85||-	=85||-	=85||-	=85||-	=85||-	=85||-	=85||-	=85||-
*M2/1	*	*M2/1	*	*M2/1	*	*M2/1	*
*met(C|)	*	*met(C|)	*	*met(C|)	*	*met(C|)	*
!	!	!LO:TX:t=P:problem=brak oznaczenie menzuralnego	!	!	!	!	!
!	!	!LO:LB:g=original	!	!LO:PB:g=original	!	!	!
00r	.	1r	.	2c\	Cru-	00r	.
.	.	.	.	2c\	-ci-	.	.
.	.	2F/	Cru-	2.A/	-fi-	.	.
.	.	2F/	-ci-	.	.	.	.
.	.	.	.	4c\	-xus	.	.
=86-	=86-	=86-	=86-	=86-	=86-	=86-	=86-
.	.	2.D/	-fi-	4B-\	e-	.	.
.	.	.	.	4A/	-ti-	.	.
.	.	.	.	4B-\	-am	.	.
.	.	4F/	-xus	4F/	pro	.	.
.	.	4E-X/	e-	1G	no-	.	.
.	.	4D/	-ti-	.	.	.	.
.	.	4E-/	-am	.	.	.	.
.	.	4BB-/	pro	.	.	.	.
=87-	=87-	=87-	=87-	=87-	=87-	=87-	=87-
0r	.	2C/	no-	2E/	-bis	2r	.
.	.	2F,/	-bis	2A/	p(ro)	2.f\	CRu-
.	.	4F/	cru-	1G	no-	.	.
.	.	2c\	-ci-	.	.	4f\	-ci-
.	.	.	.	.	.	2e\	-fi-
.	.	4c\	-fi-	.	.	.	.
=88-	=88-	=88-	=88-	=88-	=88-	=88-	=88-
2F\	CRu-	2.A\	-xus	1F	-bis	4f\	-xus
.	.	.	.	.	.	2a\	e-
2F\	-ci-	.	.	.	.	.	.
.	.	4c\	.	.	.	4a\	-ti-
2.D\	-fi-	4B-\	e-	2.f\	e-	2.f\	-am
.	.	4A\	-ti-	.	.	.	.
.	.	4B-\	-am	.	.	.	.
4F\	-xus	4F/	pro	4f\	-ti-	4a\	pro
=89-	=89-	=89-	=89-	=89-	=89-	=89-	=89-
4E-X\	e-	0G	no-	2.B-\	-am	4g\	no-
4D\	-ti-	.	.	.	.	4f\	.
4E-\	-am	.	.	.	.	4g\	.
4BB-/	pro	.	.	4d\	pro	4f\	.
1C	no-	.	.	1c	no-	2f\	.
.	.	.	.	.	.	2d\	.
=90-	=90-	=90-	=90-	=90-	=90-	=90-	=90-
1FF,	-bis	1F,	-bis	1A	-bis	1f,	bis
1F	Sub	1F	Sub	1c	Sub	1f	Sub
=91-	=91-	=91-	=91-	=91-	=91-	=91-	=91-
2F\	Pon-	2F/	pon-	2c\	Pon-	2f\	Pon-
2F\	-ti-	2F/	-ti-	2c\	-ti-	2f\	-ti-
*	*	*	*	*	*	*custos:d	*
1.D	-o	1A	-o	1.f	-o	1f	-o
=92-	=92-	=92-	=92-	=92-	=92-	=92-	=92-
!	!	!	!	!	!	!LO:LB:g=original	!
.	.	1B-	pi-	.	.	1d	Pi-
2D/	Pi-	.	.	2f\	Pi-	.	.
*	*	*custos:c	*	*custos:e	*	*	*
0C	-la-	0c	-la-	0e	-la-	0g	-la-
=93-	=93-	=93-	=93-	=93-	=93-	=93-	=93-
.	.	.	.	.	.	.	.
!	!	!LO:LB:g=original	!	!LO:LB:g=original	!	!	!
1C,	-to	1c	-to	1e	-to	1g	-to
=94-	=94-	=94-	=94-	=94-	=94-	=94-	=94-
0GG	Paſ-	1B-	paſ-	0d	paſ-	0d	Paſ-
.	.	2G/	-sus	.	.	.	.
.	.	2.D/	et	.	.	.	.
=95-	=95-	=95-	=95-	=95-	=95-	=95-	=95-
0D	-sus	.	.	0d	-sus	2.f#X\	.
.	.	4Eny/	.	.	.	.	.
.	.	2F#X/	.	.	.	.	.
.	.	.	.	.	.	4g\	.
.	.	2.F#/	Se-	.	.	2a\	.
.	.	.	.	.	.	2d\	.
.	.	4G/	.	.	.	.	.
=96-	=96-	=96-	=96-	=96-	=96-	=96-	=96-
2D/	et	2A/	.	2A/	et	2d\	-sus
2BB-/	.	2.d\	-pul-	2G/	ſe-	2.d\	et
*	*	*	*	*lig	*	*	*
1.D	Se-	.	.	1A	-pul-	.	.
.	.	8c\L	.	.	.	4e\	.
.	.	8B-\J	.	.	.	.	.
.	.	1A\	.	.	.	4f#X\	Se-
.	.	.	.	.	.	4g\	.
=97-	=97-	=97-	=97-	=97-	=97-	=97-	=97-
*	*	*	*	*col	*	*	*
.	.	.	.	2.d\	.	2.a\	-pul-
2D/	-pul-	2D/	.	.	.	.	.
*	*	*	*	*Xlig	*	*	*
.	.	.	.	4G/	-tus	4A/	-tus
*	*	*	*	*Xcol	*	*	*
1GG	-tus	1D	-tus	1G,	eſt,	1d	eſt.
=98-	=98-	=98-	=98-	=98-	=98-	=98-	=98-
*custos:GG	*	*	*	*	*	*	*
1GG	est	1D	eſt	2G/	Et	1d	.
.	.	.	.	2D/	re-	.	.
!LO:LB:g=original	!	!	!	!	!	!	!
2r	.	0r	.	4G/	-ſur-	1r	.
.	.	.	.	4A/	.	.	.
2GG/	Et	.	.	2B-\	re-	.	.
=99-	=99-	=99-	=99-	=99-	=99-	=99-	=99-
4D\	re-	.	.	1A	-xit	2r	.
4Eny\	-ſur-	.	.	.	.	.	.
2F\	-re-	.	.	.	.	2A/	Et
1D	-xit	2r	.	2r	.	4d\	re-
.	.	.	.	.	.	4e\	-ſur-
.	.	2D/	et	2.d\	ter-	2fny\	-re-
=100-	=100-	=100-	=100-	=100-	=100-	=100-	=100-
2r	.	4G/	re-	.	.	1d	-xit
.	.	4A/	.	4c\	-ti-	.	.
2.G\	ter-	2B-\	-ſu-	2B-\	-a	.	.
.	.	2d\	-re-	2A/	di-	2r	.
4F\	-ti-	.	.	.	.	.	.
2E-X\	-a	2G/	-xit	4G,/	-e	2.g\	ter-
.	.	.	.	4G/	ter-	.	.
=101-	=101-	=101-	=101-	=101-	=101-	=101-	=101-
2D/	di-	2r	.	4A/	-ti-	.	.
.	.	.	.	4B-\	-a	4f\	-ti-
*	*	*	*	*	*	*custos:d	*
2C/	-e	2.c\	ter-	2c\	di-	2e\	-a
!	!	!	!	!	!	!LO:LB:g=original	!
2r	.	.	.	4d\	-e	2d\	di-
*	*	*	*	*custos:A	*	*	*
.	.	4B-\	-ti-	4G/	ter-	.	.
!	!	!	!	!LO:LB:g=original	!	!	!
2.F\	ter-	2A/	-a	4A/	-ti-	2c/	-e
.	.	.	.	4B-\	-a	.	.
=102-	=102-	=102-	=102-	=102-	=102-	=102-	=102-
*	*	*custos:F	*	*	*	*	*
.	.	2G/	di-	2c\	di-	2r	.
4Eny\	.	.	.	.	.	.	.
!	!	!LO:LB:g=original	!	!	!	!	!
2D/	.	4Fny/	-e	2d\	-e	2.f\	ter-
.	.	4F/	ter-	.	.	.	.
2C/	-ti-	4G/	-ti-	2G/	ter-	.	.
.	.	4A/	-a	.	.	4e\	-ti-
2BB-/	-a	1B-\	di-	4d\	-ti-	2d\	-a
.	.	.	.	4B-\	-a	.	.
=103-	=103-	=103-	=103-	=103-	=103-	=103-	=103-
1F	di-	.	.	1c	di-	4c\	di-
.	.	.	.	.	.	8d\L	.
.	.	.	.	.	.	8e\J	.
.	.	2A/	.	.	.	2f\	.
2.BB-,/	-e	2.B-\	-e	2.B-\	-e	2.d,\	-e
4BB-/	Se-	4B-\	Se-	4F/	Se-	4d\	Se-
=104-	=104-	=104-	=104-	=104-	=104-	=104-	=104-
1BB-	-cun-	2B-\	-cun-	1F	-cun-	1d	-cun-
.	.	1F	-[dum]	.	.	.	.
2AA/	-dum	.	.	1F	-du(m)	1.c	-dum
2FF/	Scrip-	2F/	Scrip-	.	.	.	.
=105-	=105-	=105-	=105-	=105-	=105-	=105-	=105-
*	*	*lig	*	*	*	*	*
1FF	-tu-	1c	-tu-	1A	Scrip-	.	.
.	.	.	.	.	.	2c/	Scrip-
*	*	*	*	*lig	*	*	*
0C	.	1.C	.	1G	-tu-	0c	-tu-
*	*	*Xlig	*	*	*	*	*
=106-	=106-	=106-	=106-	=106-	=106-	=106-	=106-
.	.	.	.	1c	.	.	.
.	.	2.c\	-ras	.	.	.	.
*	*	*	*	*Xlig	*	*	*
1FF,	-ras	.	.	1c	-ras	1c,	-ras
.	.	4B-\	.	.	.	.	.
.	.	2A,\	.	.	.	.	.
=107-	=107-	=107-	=107-	=107-	=107-	=107-	=107-
2.F\	Et	2A\	et	2.c\	Et	2f\	Et
.	.	2A\	a-	.	.	2f\	a-
4F\	a-	.	.	4c\	a-	.	.
*custos:G	*	*	*	*	*	*	*
1F	-ſcen-	1A	-ſcen-	1c	-ſcen-	1f	-ſcen-
=108-	=108-	=108-	=108-	=108-	=108-	=108-	=108-
!LO:PB:g=original	!	!	!	!	!	!	!
1G	-dit	1G	-dit	1B-	-dit	1e,	-dit
1A	in	2c\	in	1c	in	1f	in
.	.	1c\	cae-	.	.	.	.
=109-	=109-	=109-	=109-	=109-	=109-	=109-	=109-
0G	ce-	.	.	0d	Cae-	0g	cae-
!	!	!LO:N:acc=#	!	!	!	!	!
.	.	4Bn\	.	.	.	.	.
.	.	4A\	.	.	.	.	.
.	.	1B	.	.	.	.	.
=110-	=110-	=110-	=110-	=110-	=110-	=110-	=110-
*	*	*	*	*custos:d	*	*	*
1C,	-lum	1c	-lum	1c	-lum	1e,	-lum
!	!	!	!	!LO:LB:g=original	!	!	!
1.D	Se-	1.A	Se-	1.d	Se-	1.f	Se-
=111-	=111-	=111-	=111-	=111-	=111-	=111-	=111-
.	.	.	.	.	.	.	.
2D/	-det	2A\	-det	2d\	-det	2f\	-det
*	*	*	*	*	*	*custos:f	*
1C	ad	1c	ad	1e	ad	1g	ad
=112-	=112-	=112-	=112-	=112-	=112-	=112-	=112-
*	*	*custos:B	*	*	*	*	*
!	!	!	!	!	!	!LO:LB:g=original	!
0D	dex-	0F	dex-	0d	dex-	2.f\	dex-
.	.	.	.	.	.	4g\	.
.	.	.	.	.	.	1.a	.
=113-	=113-	=113-	=113-	=113-	=113-	=113-	=113-
!	!	!LO:PB:g=original	!	!	!	!	!
1BB-	-te-	1B-y	-te-	1d	-te-	.	.
.	.	.	.	.	.	2g\	-te-
1F	-ram	1A	-ram	1c	-ra(m)	2f\	-ram
.	.	.	.	.	.	1f\	Pa-
=114-	=114-	=114-	=114-	=114-	=114-	=114-	=114-
0C	Pa-	0G	pa-	0c	pa-	.	.
.	.	.	.	.	.	4e\	.
.	.	.	.	.	.	4d\	.
.	.	.	.	.	.	1e	.
=115-	=115-	=115-	=115-	=115-	=115-	=115-	=115-
1FF,	-tris	2A\	-tris	1c	-tris	1f,	-tris
.	.	2c\	et	.	.	.	.
2FF,/	Et	2.c\	i-	2r	.	1f,	Et
2F\	i-	.	.	2A/	Et	.	.
.	.	4c\	-te-	.	.	.	.
=116-	=116-	=116-	=116-	=116-	=116-	=116-	=116-
2.F\	-te-	2d\	-rum	2.A/	i-	2.f\	i-
.	.	2A/	ven-	.	.	.	.
4F\	-rum	.	.	4A/	-te-	4f\	-te-
2G\	Ven-	4B-\	-tu-	2G/	-rum	2d\	-rum
.	.	8A/L	.	.	.	.	.
.	.	8G/J	.	.	.	.	.
2D\	-tu-	4A/	.	2d\	ven-	2f\	ven-
.	.	4B-/	.	.	.	.	.
=117-	=117-	=117-	=117-	=117-	=117-	=117-	=117-
2E-X\	.	2c\	.	2G/	-tu-	2e-X\	-tu-
2G\	-rus	2B-\	-rus	2B-\	-rus	2d\	-rus
1.F	eſt	1.A,	eſt	0c	eſt	2f\	eſt
.	.	.	.	.	.	2c/	[cum]
=118-	=118-	=118-	=118-	=118-	=118-	=118-	=118-
.	.	.	.	.	.	4f\	glo-
.	.	.	.	.	.	4eny\	.
*custos:B	*	*	*	*	*	*	*
2F\	cum	2A/	cum	.	.	4e\	.
.	.	.	.	.	.	8d\L	.
.	.	.	.	.	.	8c\J	.
!LO:LB:g=original	!	!	!	!	!	!	!
2.B-\	glo-	2.d\	glo-	2r	.	4d\	.
.	.	.	.	.	.	4c\	.
.	.	.	.	1F/	Cum	4d\	.
4A\	.	4c\	.	.	.	4e\	.
=119-	=119-	=119-	=119-	=119-	=119-	=119-	=119-
4A\	.	4c\	.	.	.	1.f	.
8G\L	.	8B-\L	.	.	.	.	.
8F\J	.	8A\J	.	.	.	.	.
1G	.	1B-	.	4B-\	glo-	.	.
.	.	.	.	4A/	.	.	.
.	.	.	.	4A/	.	.	.
.	.	.	.	8G/L	.	.	.
.	.	.	.	8F/J	.	.	.
2G\	ri-	2B-\	-ri-	4.G/	.	2e\	-ri-
*	*	*	*	*custos:A	*	*	*
.	.	.	.	8G/	-ri-	.	.
=120-	=120-	=120-	=120-	=120-	=120-	=120-	=120-
*	*	*	*	*	*	*custos:f	*
!	!	!	!	!LO:LB:g=original	!	!	!
1F,	-a	1A	-a	4A/	-a	0f	-a
.	.	.	.	2c\	iu-	.	.
.	.	.	.	4B-\	-di-	.	.
2.F\	iu-	2c\	iu-	2A/	-ca-	.	.
*	*	*custos:A	*	*	*	*	*
.	.	2G/	-di-	2G/	-re	.	.
4Eny\	-di-	.	.	.	.	.	.
=121-	=121-	=121-	=121-	=121-	=121-	=121-	=121-
!	!	!LO:LB:g=original	!	!	!	!LO:PB:g=original	!
2D/	-ca-	2A\	-ca-	2F/	vi-	2.f\	iu-
2C/	-re	2c\	-re	4G/	.	.	.
.	.	.	.	4A/	.	4e\	-di-
1BB-	Vi-	1F	vi-	1B-	.	2d\	-ca-
.	.	.	.	.	.	2c\	-re
=122-	=122-	=122-	=122-	=122-	=122-	=122-	=122-
2BB-/	-uos	2F/	-uos	2F/	-uos	2B-/	vi-
2AA/	et	2A\	et	2F/	et	4c\	-uos
.	.	.	.	.	.	4c\	et
1.GG	mor-	2D/	mor-	1.F	mor-	1d	mor-
.	.	4E/	.	.	.	.	.
.	.	4F/	.	.	.	.	.
=123-	=123-	=123-	=123-	=123-	=123-	=123-	=123-
.	.	2G/	.	.	.	1B-	-tu-
2GG/	-tu-	2G/	-tu-	2E/	-tu-	.	.
1FF	-os.	1C	-os	1F	-os	1A	-os
=124-	=124-	=124-	=124-	=124-	=124-	=124-	=124-
*M3/1	*	*M3/1	*	*M3/1	*	*M3/1	*
*	*	*	*	*	*	*met(C|)	*
!LO:TX:t=P:problem=oznaczenie menzuralne C| 3/1	!	!	!	!LO:TX:t=P:problem=oznaczenie menzuralne O| 3/1	!	!LO:TX:t=P:problem=oznaczenie menzuralne C| 3/1	!
0F	Cu-	0F	Cu-	0c	Cu-	0f	Cu-
1C	-ius	1G	-ius	1c	-ius	1e	-ius
=125-	=125-	=125-	=125-	=125-	=125-	=125-	=125-
0F	re-	0A	re-	0c	re-	0f	re-
1F,	-gni	1A	-gni	1c	-gni	1f,	-gni
=126-	=126-	=126-	=126-	=126-	=126-	=126-	=126-
*	*ij	*	*	*	*	*	*
0F	Cu-	0A	cu-	0c	Cu-	0f	Cu-
1BB-	-ius	1B-	-ius	1d	-ius	1g	-ius
=127-	=127-	=127-	=127-	=127-	=127-	=127-	=127-
0F	re-	0c	re-	0f	re-	0a	re-
*custos:F	*	*	*	*custos:f	*	*	*
1B-,	-gni	1d	-gni	1f	-gni	1f,	-gni
*	*Xij	*	*	*	*	*	*
=128-	=128-	=128-	=128-	=128-	=128-	=128-	=128-
!	!	!	!	!LO:PB:g=original	!	!	!
1F	non	1c	non	1f	non	1a	non
1F	e-	1c	e-	1f	e-	1a	e-
1G	-rit	1B-	-rit	1d	-rit	1g,	-rit
=129-	=129-	=129-	=129-	=129-	=129-	=129-	=129-
0D	fi-	1A	non	0d	fi-	1f	fi-
.	.	1A	e-	.	.	1f	-nis
*	*	*	*	*	*	*custos:e	*
!LO:TX:t=P:problem=kreska pseudotaktowa	!	!	!	!	!	!	!
1D	-nis	1A	-rit	1d	-nis	1f	fi-
=130-	=130-	=130-	=130-	=130-	=130-	=130-	=130-
!	!	!	!	!	!	!LO:LB:g=original	!
1r	.	0c	fi-	1r	.	0e	-nis
1C	fi-	.	.	1G	fi-	.	.
*	*	*custos:A	*	*	*	*	*
1C	-nis	1c	-nis	1G	-nis	1e	non
=131-	=131-	=131-	=131-	=131-	=131-	=131-	=131-
!	!	!LO:LB:g=original	!	!	!	!	!
0D	non	0A	non	0d	non	0f	e-
1D	e-	1B-	e-	1d	e-	1f	-rit
=132-	=132-	=132-	=132-	=132-	=132-	=132-	=132-
*col	*	*col	*	*col	*	*	*
1AA	-rit	1A	-rit	1c	-rit	1f	fi-
*	*	*	*	*	*	*lig	*
*	*	*	*	*	*	*col	*
0C	fi-	0G	fi-	0c	fi-	1f	.
.	.	.	.	.	.	1e	.
*Xcol	*	*Xcol	*	*Xcol	*	*Xlig	*
*	*	*	*	*	*	*Xcol	*
=133-	=133-	=133-	=133-	=133-	=133-	=133-	=133-
!LO:TX:t=P:problem=kreska pseudotaktowa	!	!	!	!	!	!	!
0.FF	-nis	0.A	-nis	0.c	-nis	0.f	-nis,
=134-	=134-	=134-	=134-	=134-	=134-	=134-	=134-
1C	non	1c	non	1e	non	1g	non
1C	e-	1c	e-	1e	e-	1g	e-
1C	-rit	1c	-rit	1e	-rit	1g	-rit
=135-	=135-	=135-	=135-	=135-	=135-	=135-	=135-
0D	non	0A	no(n)	0d	non	0f	e-
1BB-	e-	1B-	e-	1d	e-	1f	-rit
=136-	=136-	=136-	=136-	=136-	=136-	=136-	=136-
*col	*	*col	*	*	*	*	*
1F	-rit	1A	-rit	1c	-rit	1f	fi-
*	*	*	*	*col	*	*lig	*
0C	fi-	0G	fi-	0c	fi-	1f	.
.	.	.	.	.	.	1e	.
*Xcol	*	*Xcol	*	*Xcol	*	*Xlig	*
=137-	=137-	=137-	=137-	=137-	=137-	=137-	=137-
0.FF;	-nis.	0.A;	-nis	0.c;	-nis	0.f;	-nis.
=138||-	=138||-	=138||-	=138||-	=138||-	=138||-	=138||-	=138||-
*M2/1	*	*M2/1	*	*M2/1	*	*M2/1	*
*met(C|)	*	*met(C|)	*	*met(C|)	*	*met(C|)	*
!	!	!	!	!LO:TX:t=P:problem=brak oznaczenia menzuralnego	!	!	!
!LO:LB:g=original	!	!LO:LB:g=original	!	!LO:LB:g=original	!	!LO:LB:g=original	!
2F\	ET	2A/	Et	2c\	Et	2f\	ET
4F\	in	4A/	in	4c\	in	4f\	in
4.F\	Spi-	4.A/	Spi-	4.c\	Spi-	4.f\	Spi-
8F\	-ri-	8A/	-ri-	8c\	-ri-	8f\	-ri-
4D/	-tum	4A/	-tum	4d\	-tum	4f\	-tum
!	!	!LO:N:acc=#	!	!	!	!	!
4G\	San-	4Bn\	San-	4d\	San-	4g\	San-
4C/	-ctum	4c\	-ctum	4c\	-ctum	4e\	-ctum
=139-	=139-	=139-	=139-	=139-	=139-	=139-	=139-
4.F\	D(o-	4.A/	do-	4.c\	Do-	4.f\	D(o-
8F\	-mi)-	8A/	-mi-	8c\	-mi-	8f\	-mi)-
1F,	-num	1A	-num	1c	-num	2f\	-num
.	.	.	.	.	.	4f\	et
.	.	.	.	.	.	4e\	ui-
4BB-/	et	4D/	et	4f\	et	4d\	-ui-
4C/	Vi-	4E/	vi-	4e\	Vi-	4c\	-fi-
=140-	=140-	=140-	=140-	=140-	=140-	=140-	=140-
4D\	-ui-	4F/	-ui-	2d\	-ui-	2B-/	-can-
4E\	.	4G/	.	.	.	.	.
2F\	-fi-	2A/	-fi-	1c	-fi-	4f\	.
.	.	.	.	.	.	4e\	.
1G	-can-	1G	-can-	.	.	4d\	.
.	.	.	.	.	.	4c\	.
!	!	!	!	!LO:N:acc=#	!	!	!
.	.	.	.	2Bn\	-can-	2d\	.
=141-	=141-	=141-	=141-	=141-	=141-	=141-	=141-
1C,	-tem	1G	-tem	1c	-tem	1e,	-tem
2C/	Qui	2G/	qui	2c\	Qui	2e\	Qui
4C/	ex	4G/	ex	4c\	ex	4e\	ex
2C/	Pa-	2G/	pa-	2c\	Pa-	2e\	Pa-
=142-	=142-	=142-	=142-	=142-	=142-	=142-	=142-
.	.	.	.	.	.	.	.
4AA/	-tre	4A/	-tre	4c\	-tre	4e\	-tre
4D/	fi-	4A/	fi-	4d\	Fi-	4f#X\	Fi-
!	!	!	!	!LO:N:acc=#	!	!	!
4GG/	-li-	4G/	-li-	4Bn\	-li-	4g\	-li-
*	*	*	*	*custos:A	*	*	*
2C/	-o-	2G/	-o-	2c\	-o-	2e\	-o-
*	*	*	*	*	*	*custos:e	*
!	!	!	!	!LO:LB:g=original	!	!	!
1FF/	-que	1c\	-que	2.A/	-q(ue)	1fny\	-que
=143-	=143-	=143-	=143-	=143-	=143-	=143-	=143-
.	.	.	.	.	.	.	.
.	.	.	.	4B-y\	pro-	.	.
!	!	!	!	!	!	!LO:LB:g=original	!
2AA/	pro-	2c\	pro-	1c	-ce-	2e#\	pro-
*custos:C	*	*custos:c	*	*	*	*	*
1GG	-ce-	1d	-ce-	.	.	1g	-ce-
!	!	!	!	!LO:N:acc=#	!	!	!
.	.	.	.	2Bn\	.	.	.
=144-	=144-	=144-	=144-	=144-	=144-	=144-	=144-
!LO:LB:g=original	!	!LO:PB:g=original	!	!	!	!	!
4C,/	-dit,	4c\	-dit	4c\	-dit	4eny,\	-dit
2C/	Qui	2G/	Qui	2c\	Qui	2e\	Qui
4C/	cum	4G/	cum	4c\	cum	4e\	cum
1C	Pa-	1G	pa-	2c\	Pa-	1e	Pa-
.	.	.	.	1G/	-tre	.	.
=145-	=145-	=145-	=145-	=145-	=145-	=145-	=145-
!LO:N:acc=#	!	!	!	!	!	!	!
2BBn/	-tre	2G/	-tre	.	.	2d\	-tre
2C/	et	2G/	et	2c\	et	2g\	et
2.FF/	Fi-	2.A/	fi-	2.c\	Fi-	2.f\	fi-
4FF/	-li-	4A/	-li-	4c\	-li-	4f\	-li-
=146-	=146-	=146-	=146-	=146-	=146-	=146-	=146-
1C	-o	1G,	-o	1c	-o	1e	-o
2.F\	Si-	2.A\	Si-	1.c	si-	2.f\	Si-
4F\	-mul	4A\	-mul	.	.	4f\	-mul
=147-	=147-	=147-	=147-	=147-	=147-	=147-	=147-
2F\	a-	2A\	a-	.	.	2f\	a-
2FF/	-do-	2c\	-do-	2f\	-mul	2f\	-do-
0BB-y	-ra-	2.d\	-ra-	1d	a-	0f	-ra-
.	.	4c\	.	.	.	.	.
=148-	=148-	=148-	=148-	=148-	=148-	=148-	=148-
.	.	1B-y	.	2d\	-do-	.	.
.	.	.	.	1f	-ra-	.	.
1FF,	-tur	1A	-tur	.	.	1f,	-tur
.	.	.	.	2c\	-tur	.	.
=149-	=149-	=149-	=149-	=149-	=149-	=149-	=149-
4F\	Et	4A\	et	4A/	et	4c/	et
8F\	con-	8A/	con-	8A/	con-	8c/L	con-
8G\	-glo-	8G/	-glo-	8B-y\	-glo-	8B-/J	-glo-
4A\	-ri-	4F/	-ri-	4c\	-ri-	4A/	-ri-
*	*	*	*	*custos:A	*	*	*
4B-\	-fi-	4B-\	-fi-	4d\	-fi-	4d\	-fi-
!	!	!	!	!LO:LB:g=original	!	!	!
2F\	-ca-	2c\	-ca-	2A/	-ca-	2f\	-ca-
1BB-,/	-tur	1B-,\	-tur	1d\	-tur	[<2f\	-tur
=150-	=150-	=150-	=150-	=150-	=150-	=150-	=150-
*	*	*	*	*	*	*custos:f	*
.	.	.	.	.	.	2f\]	.
!	!	!	!	!	!	!LO:LB:g=original	!
2.F\	Qui	2.A/	qui	2.c\	qui	2.f\	Qui
4F\	lo-	4A/	lo-	4c\	lo-	4f\	lo-
4F\	-cu-	4A/	-cu-	4c\	-cu-	4f\	-cu-
4F\	-tus	4A/	-tus	4c\	-tus	4f\	-tus
=151-	=151-	=151-	=151-	=151-	=151-	=151-	=151-
*custos:C	*	*	*	*	*	*	*
2E\	eſt	2C/	eſt	2c\	eſt	2g\	eſt
*	*	*custos:G	*	*	*	*	*
!LO:PB:g=original	!	!	!	!	!	!	!
1C	per	1E	per	1c	per	1g	per
!	!	!LO:LB:g=original	!	!	!	!	!
2E\	Pro-	2G/	pro-	2G/	Pro-	2e\	Pro-
=152-	=152-	=152-	=152-	=152-	=152-	=152-	=152-
!	!	!	!	!LO:N:acc=#	!	!	!
1G	-phe-	1G	-fe-	1Bn	-phe-	1d	-phe-
2C,/	-tas	2G,/	-tas	2c,\	-tas	2e,\	-tas
2C/	Et	2c\	et	2e\	Et	2g\	Et
=153-	=153-	=153-	=153-	=153-	=153-	=153-	=153-
4F\	V-	4c\	u-	4d\	V-	4a\	V-
4E\	-nam	4c\	-nam	4c\	-nam	4g\	-nam
2F\	San-	2c\	San-	2A/	San-	2f\	San-
2D,/	-ctam	2d\	-ctam	2.f\	-ctam	2.a\	-ctam
2AA/	Ca-	2c\	ca-	.	.	.	.
.	.	.	.	4e\	Ca-	4g\	Ca-
=154-	=154-	=154-	=154-	=154-	=154-	=154-	=154-
2BB-/	-tho-	2d\	-tho-	2d\	-tho-	2f\	-tho-
2D/	-li-	2A/	-li-	2f\	-li-	2f\	-li-
1C,	-cam	1c	-cam	1e	-cam	1g,	-cam,
=155-	=155-	=155-	=155-	=155-	=155-	=155-	=155-
2C/	et	2G/	et	2c\	Et	2e\	et
4C/	A-	4G/	a-	4c\	A-	4e\	A-
*	*	*	*	*custos:c	*	*	*
4C/	-po-	4G/	-po-	4c\	-po-	4e\	-po-
!	!	!	!	!LO:LB:g=original	!	!	!
2.C/	-ſto-	2G/	-sto-	2.c\	-sto-	2e\	-ſto-
.	.	2E/	-li-	.	.	2g\	-li-
4C/	-li-	.	.	4G/	-li-	.	.
=156-	=156-	=156-	=156-	=156-	=156-	=156-	=156-
1.GG	-cam	0D	-cam	1G	-cam	1.g	-cam
.	.	.	.	2.B-y\	Ec-	.	.
2GG/	Ec-	.	.	.	.	2g\	Ec-
.	.	.	.	2d\	-cle-	.	.
=157-	=157-	=157-	=157-	=157-	=157-	=157-	=157-
0D	-cle-	2D/	ec-	.	.	4.f#X\	-cle-
.	.	.	.	4A/	.	.	.
.	.	.	.	.	.	8g\	.
.	.	1D	-cle-	1d	.	4a\	.
.	.	.	.	.	.	4g\	.
.	.	.	.	.	.	4f#\	.
.	.	.	.	.	.	4e\	.
*	*	*	*	*	*	*custos:a	*
.	.	2D/	-si-	4c\	.	2d\	.
.	.	.	.	4B-\	.	.	.
=158-	=158-	=158-	=158-	=158-	=158-	=158-	=158-
!	!	!	!	!	!	!LO:PB:g=original	!
1D	-ſi-	0D	-am	2A\	.	2.a\	.
.	.	.	.	2d\	-si-	.	.
.	.	.	.	.	.	4a\	-ſi-
1GG	-am	.	.	1d	-am	1g	-am
=159-	=159-	=159-	=159-	=159-	=159-	=159-	=159-
1r	.	1r	.	1r	.	1r	.
2F\	Con-	2A/	Con-	2c\	Con-	2fny\	Con-
2.F\	-fi-	2.A/	-fi-	2.c\	-fi-	2.f\	-fi-
=160-	=160-	=160-	=160-	=160-	=160-	=160-	=160-
.	.	.	.	.	.	.	.
4F\	-te-	4A/	-te-	4c\	-te-	4f\	-te-
*custos:D	*	*	*	*	*	*	*
2F\	-or	2A/	-or	2c\	-or	2f\	-or
1D	V-	1A	u-	1f	V-	1f	V-
=161-	=161-	=161-	=161-	=161-	=161-	=161-	=161-
2D/	-num	2B-\	-num	2d\	-num	2f\	-num
2D/	Ba-	2B-\	ba-	2d\	Ba-	2f\	Ba-
1C	-pti-	1c	-pti-	1e	-pti-	1g	-pti-
=162-	=162-	=162-	=162-	=162-	=162-	=162-	=162-
*	*	*custos:c	*	*	*	*	*
1C,	-ſma	1c	-sma	1e	-ſma	1g,	-ſma
!	!	!LO:LB:g=original	!	!	!	!	!
2F\	in	2c\	in	2A\	in	2f\	in
4F\	re-	4A/	re-	4c\	re-	4f\	re-
2F\	-miſ-	2A/	-mis-	2c\	-miſ-	2f\	-miſ-
=163-	=163-	=163-	=163-	=163-	=163-	=163-	=163-
.	.	.	.	.	.	.	.
4F\	-si-	4A/	-si-	4c\	-si-	4f\	-si-
*	*	*	*	*custos:B	*	*	*
2F\	-o-	2A/	-o-	2c\	-o-	2f\	-o-
!	!	!	!	!LO:PB:g=original	!	!	!
1G	-nem	1G	-nem	1B-	-nem	1e	-nem
=164-	=164-	=164-	=164-	=164-	=164-	=164-	=164-
2A\	pec-	2c\	pec-	2c\	pec-	2f\	pec-
2A\	-ca-	1c	-ca-	2c\	-ca-	2f\	-ca-
0G	-to-	.	.	0d	-to-	0g	-to-
!	!	!LO:N:acc=#	!	!	!	!	!
.	.	4Bn\	.	.	.	.	.
.	.	4A\	.	.	.	.	.
=165-	=165-	=165-	=165-	=165-	=165-	=165-	=165-
!	!	!LO:N:acc=#	!	!	!	!	!
.	.	1Bn	-to-	.	.	.	.
1C,	-rum	1c,	-rum	1c	-rum	1e,	-rum
=166-	=166-	=166-	=166-	=166-	=166-	=166-	=166-
2.D/	Et	2.A/	et	2.d\	Et	2.f\	Et
4D/	ex-	4A/	ex-	4d\	ex-	4f\	ex-
1D	-pe-	1A	-pe-	1d	-pe-	1f	-pe-
=167-	=167-	=167-	=167-	=167-	=167-	=167-	=167-
*	*	*	*	*	*	*custos:g	*
1C,	-cto	1c	-cto	1e	-cto	1g	-cto
!	!	!	!	!	!	!LO:LB:g=original	!
2.C/	re-	2.c\	re-	2.e\	re-	2.g\	re-
4C/	-ſur-	4c\	-sur-	4e\	-ſur-	4g\	-ſur-
=168-	=168-	=168-	=168-	=168-	=168-	=168-	=168-
2D/	-re-	2F/	-re-	2d\	-re-	2f\	-re-
2D/	-cti-	2F/	-cti-	2d\	-cti-	2f\	-cti-
1D	-o-	1F	-o-	1.d	-o-	1.a	-o-
=169-	=169-	=169-	=169-	=169-	=169-	=169-	=169-
1BB-	-nem	1B-y	-nem	.	.	.	.
.	.	.	.	2d\	-nem	2g\	.
2F\	mor-	2A/	mor-	2c\	mor-	2f\	-nem
*custos:C	*	*	*	*	*	*	*
2FF/	-tu-	2A/	-tu-	2c\	-tu-	2f\	mor-
=170-	=170-	=170-	=170-	=170-	=170-	=170-	=170-
!LO:TX:a:t=2	!	!	!	!	!	!	!
!LO:LB:g=original	!	!	!	!	!	!	!
0C	-o-	0G	-o-	0c	-o-	2f\	-tu-
.	.	.	.	.	.	4e\	.
.	.	.	.	.	.	4d\	.
.	.	.	.	.	.	1e	-o-
=171-	=171-	=171-	=171-	=171-	=171-	=171-	=171-
2FF,/	-rum	2F/	-rum	2c\	-rum	2f,\	-rum
*2\left	*	*	*	*	*	*	*
2F\	Et	2A\	et	2c\	Et	2f\	Et
2BB-/	Vi-	2B-\	ui-	2d\	Vi-	2f\	Vi-
*	*	*custos:F	*	*	*	*	*
2FF/	-tam	2A/	-tam	2c\	-tam	2f\	-tam
=172-	=172-	=172-	=172-	=172-	=172-	=172-	=172-
*M3/1	*	*M3/1	*	*M3/1	*	*M3/1	*
!LO:TX:t=P:problem=oznaczenie menzuralne C| 3/1	!	!	!	!LO:TX:t=P:problem=oznaczenie menzuralne C| 3/1	!	!LO:TX:t=P:problem=oznaczenie menzuralne C| 3/1	!
!	!	!LO:LB:g=original	!	!LO:LB:g=original	!	!	!
1F	Ven-	1F	ven-	1F	Ven-	1c	Ven-
1F	-tu-	1F	-tu-	1F	-tu-	1c	-tu-
1C	-ri	1E	-ri	1G	-ri	1c,	-ri
=173-	=173-	=173-	=173-	=173-	=173-	=173-	=173-
1.F	Se-	1.F	Se-	1.A	Se-	1.c	Se-
*2\right	*	*	*	*	*	*	*
2F\	-cu-	2F/	-cu-	2A/	-cu-	2c/	-cu-
*	*	*	*	*	*	*custos:c	*
1F,	-li	1F	-li	1A	-li	1c	-li
=174-	=174-	=174-	=174-	=174-	=174-	=174-	=174-
!	!	!	!	!	!	!LO:LB:g=original	!
1F	Ven-	1F	uen-	1A	Ven-	1c	Ven-
1F	-tu-	1F	-tu-	1A	-tu-	1c	-tu-
1BB-	-ri	1G	-ri	1B-	-ri	1d	-ri
=175-	=175-	=175-	=175-	=175-	=175-	=175-	=175-
0FF	Se-	0A	Se-	0c	Se-	0f	Se-
1BB-,	-cu-	1B-	-cu-	1d	-cu-	1f	-cu-
=176-	=176-	=176-	=176-	=176-	=176-	=176-	=176-
0F	-li	0A	-li	0c	-li	0f,	-li
1G	A-	1G	a-	1B-	A-	1d	A-
=177-	=177-	=177-	=177-	=177-	=177-	=177-	=177-
!	!	!	!	!LO:N:vis=0	!	!	!
0.D	-men	0.F#X,	-men	0.A	-men	0.d	-men
=178-	=178-	=178-	=178-	=178-	=178-	=178-	=178-
*M2/1	*	*M2/1	*	*M2/1	*	*M2/1	*
*met(C|)	*	*met(C|)	*	*met(C|)	*	*met(C|)	*
*custos:F	*	*	*	*	*	*	*
1D	Et	2A/	et	2r	.	0d	Et
.	.	1d	ui-	2G/	Et	.	.
*lig	*	*	*	*	*	*	*
!LO:LB:g=original	!	!	!	!	!	!	!
1G	Vi-	.	.	4G/	Vi-	.	.
.	.	.	.	4A/	.	.	.
.	.	2G/	.	4B-\	.	.	.
.	.	.	.	4c\	.	.	.
=179-	=179-	=179-	=179-	=179-	=179-	=179-	=179-
1GG	.	0G	-tam	1d	.	1g	Vi-
*Xlig	*	*	*	*	*	*	*
*	*	*	*	*custos:e	*	*	*
1C	-tam	.	.	1c	-tam	1e	-tam
=180-	=180-	=180-	=180-	=180-	=180-	=180-	=180-
*M3/1	*	*M3/1	*	*M3/1	*	*M3/1	*
!LO:TX:t=P:problem=oznaczenie menzuralne O| 3/1	!	!	!	!LO:TX:t=P:problem=oznaczenie menzuralne O| 3/1	!	!LO:TX:t=P:problem=oznaczenie menzuralne C| 3/1	!
!	!	!	!	!LO:LB:g=original	!	!	!
1C	Ven-	1c	ven-	1e	Ven-	1g	Ven-
1C	-tu-	1c	-tu-	1e	-tu-	1g	-tu-
1E	-ri	1c	-ri	1e	-ri	1g	-ri
=181-	=181-	=181-	=181-	=181-	=181-	=181-	=181-
0F	Se-	0A	Se-	0d	Se-	0f	Se-
1F	-cu-	1B-	-cu-	1d	-cu-	1f	-cu-
=182-	=182-	=182-	=182-	=182-	=182-	=182-	=182-
*col	*	*col	*	*col	*	*	*
1FF	-li	1A	-li	1c	-li	1f,	-li
*	*	*	*	*	*	*lig	*
0C	A-	0G	a-	0c	A-	1f	A-
.	.	.	.	.	.	1e	.
*Xcol	*	*Xcol	*	*Xcol	*	*Xlig	*
=183-	=183-	=183-	=183-	=183-	=183-	=183-	=183-
*	*	*	*	*	*	*custos:c	*
!LO:N:vis=0	!	!	!	!	!	!	!
0.FF	-men	0.A	-men	0.c	-men	0.f	-men
=184-	=184-	=184-	=184-	=184-	=184-	=184-	=184-
*M2/1	*	*M2/1	*	*M2/1	*	*M2/1	*
*met(C|)	*	*met(C|)	*	*met(C|)	*	*met(C|)	*
!	!	!LO:LB:g=original	!	!	!	!LO:LB:g=original	!
1FF	Et	1A	et	1c	Et	2c/	Et
.	.	.	.	.	.	2.f\	Vi-
0BB-	Vi-	2.Fny/	vi-	0F	Vi-	.	.
.	.	.	.	.	.	4e\	.
.	.	.	.	.	.	2.d\	.
.	.	4E/	.	.	.	.	.
=185-	=185-	=185-	=185-	=185-	=185-	=185-	=185-
.	.	4D/	.	.	.	.	.
.	.	4E/	.	.	.	4c/	.
.	.	1F	.	.	.	2B-/	.
1F	-tam	.	.	1A	-tam	1c	-tam
.	.	2c\	-tam	.	.	.	.
=186-	=186-	=186-	=186-	=186-	=186-	=186-	=186-
*M3/1	*	*M3/1	*	*M3/1	*	*M3/1	*
!LO:TX:t=P:problem=oznaczenie menzuralne O| 3/1	!	!	!	!	!	!LO:TX:t=P:problem=oznaczenie menzuralne C| 3/1	!
1C	Ven-	1c	ven-	1e	Ven-	1g	Ven-
1C	-tu-	1c	-tu-	1e	-tu-	1g	-tu-
1C	-ri	1c	-ri	1e	-ri	1g	-ri
=187-	=187-	=187-	=187-	=187-	=187-	=187-	=187-
0D	Se-	0A	Se-	0d	Se-	0f	Se-
*custos:FF	*	*	*	*	*	*	*
1BB-	-cu-	1B-	-cu-	1d	-cu-	1f	-cu-
=188-	=188-	=188-	=188-	=188-	=188-	=188-	=188-
*col	*	*col	*	*col	*	*	*
!LO:LB:g=original	!	!	!	!	!	!	!
1FF	-li	1A	-li	1c	-li	1f	-li
*	*	*	*	*	*	*lig	*
0C	A-	0G	A-	0c	A-	1f	A-
.	.	.	.	.	.	1e	.
*Xcol	*	*Xcol	*	*Xcol	*	*Xlig	*
=189-	=189-	=189-	=189-	=189-	=189-	=189-	=189-
!LO:TX:b:t=Sanctus na przodku\npo Roratach.	!	!LO:TX:b:t=Sanctus na przodku\npo Roratach	!	!LO:TX:b:t=Sanctus na Końcu\npo Roratach.	!	!LO:TX:b:t=Sanctus na przodku Po Roratach	!
0.FF;	-men.	0.A;	-men	0.c;	-men.	0.f;	-men
=-	=-	=-	=-	=-	=-	=-	=-
*-	*-	*-	*-	*-	*-	*-	*-
!!!system-decoration: [(s1,s2,s3,s4)]
!!!RDF**kern: < = below
!!!RDF**kern: > = above
!!!RDF**kern: l = terminal long
!!!ENC: Andrzej Kubiczek
!!!END: 2022-01-06
!!!ENC: Marta Chmielewska
!!!END: 2022-01-10
